assets/images/logo/in2art_logo.svg

<svg xmlns='http://www.w3.org/2000/svg' viewBox='0 3 172 46'>
  <defs>
    <clipPath id='a'>
      <path fill='none' d='M0 0h44.34v44.342H0z' />
    </clipPath>
  </defs>
  <g clip-path='url(#a)' transform='translate(1.43 3.858)'>
    <path fill='#fff'
          d='M50.716 45.559H-7.469V-7.989c0-.341 0-.341.367-.341h57.818ZM49.56 44.47V-6.895c0-.364 0-.364-.4-.364H-5.905c-.411 0-.411 0-.411.384v50.98c0 .382 0 .382.414.382h20.25a.519.519 0 0 0 .2-.005c.087-.04.2-.095.227-.167a4.791 4.791 0 0 0 .174-.713 20.633 20.633 0 0 0-.284-7.936 31.36 31.36 0 0 0-1.2-3.619 22.448 22.448 0 0 0-3.2-6.065 52.056 52.056 0 0 0-4.621-5.219 96.684 96.684 0 0 1-2.593-2.766 2.571 2.571 0 0 1-.444-.752c-.162-.393 0-.66.439-.784a1.483 1.483 0 0 1 1.072.1 11.143 11.143 0 0 1 1.85 1.04c1.034.8 1.989 1.681 2.984 2.521.926.781 1.849 1.565 2.8 2.32a3.116 3.116 0 0 0 .956.488.7.7 0 0 0 1-.58 2.985 2.985 0 0 0-.034-.908 12.1 12.1 0 0 0-1.143-3.122c-1.127-2.274-2.292-4.532-3.417-6.806a17.5 17.5 0 0 1-.86-2.068 2.41 2.41 0 0 1-.041-1.574.842.842 0 0 1 1.2-.515 2.741 2.741 0 0 1 .785.541 10.763 10.763 0 0 1 1.8 2.472c1.258 2.215 2.47 4.452 3.742 6.66a26.692 26.692 0 0 0 1.565 2.3.837.837 0 0 0 .882.4.746.746 0 0 0 .544-.76 13.782 13.782 0 0 0 .081-2.45c-.252-2.413-.582-4.818-.891-7.226a30.9 30.9 0 0 1-.356-4.538 4.1 4.1 0 0 1 .354-1.841 1.151 1.151 0 0 1 1.01-.658.944.944 0 0 1 .946.592 5.913 5.913 0 0 1 .53 1.479c.425 2.533.78 5.076 1.208 7.609.32 1.894.7 3.78 1.087 5.664a6.478 6.478 0 0 0 .531 1.483.631.631 0 0 0 1.1.071 2.142 2.142 0 0 0 .338-.628c.191-.592.367-1.19.515-1.792.666-2.711 1.3-5.428 1.993-8.133a12.915 12.915 0 0 1 .818-2.079 1.354 1.354 0 0 1 .86-.717.807.807 0 0 1 1.121.494 2.87 2.87 0 0 1 .171.791 17.307 17.307 0 0 1-.421 4.291c-.479 2.6-1 5.2-1.46 7.807a14.421 14.421 0 0 0-.193 4.1 5.713 5.713 0 0 0 .4 1.567 1.162 1.162 0 0 0 1.679.552 4.815 4.815 0 0 0 1.044-.7 11.016 11.016 0 0 0 1.976-2.476 6.656 6.656 0 0 1 2.637-2.494 5.127 5.127 0 0 1 3.923-.424c1.056.324 1.258.891.572 1.7a16.855 16.855 0 0 1-1.585 1.6 25.359 25.359 0 0 0-4.772 5.618c-.6.978-1.108 2.008-1.768 2.948-.914 1.3-1.91 2.554-2.912 3.8a8.694 8.694 0 0 0-1.785 4.565 24.487 24.487 0 0 0-.048 4.626c.017.247.091.336.383.336q10.69-.013 21.381-.007c.11 0 .22-.01.359-.017M22.515 29.559a7.479 7.479 0 0 0 3.951-3.113 8.024 8.024 0 0 0-5.03-1.276c.312.074.586.128.853.205a2.136 2.136 0 0 1 1.616 1.63 1.987 1.987 0 0 1-.783 2.09c-.2.16-.405.31-.608.465m-5.723-1.118a8.019 8.019 0 0 0 4.958 1.282c-.012-.012-.022-.032-.037-.036-.173-.042-.345-.085-.519-.122a2.179 2.179 0 0 1-1.834-1.647 2.018 2.018 0 0 1 .883-2.222l.5-.376a7.4 7.4 0 0 0-3.951 3.122'
    />
  </g>
  <path fill='#fff' d='M45.769 48.564H0V3.026h45.769ZM1.624 46.941h42.521V4.647H1.624Z' />
  <text fill='#fff' font-family='Roboto-Regular, Roboto' font-size='35' transform='translate(53 37)'>
    <tspan x='0' y='0'>IN2ART</tspan>
  </text>
</svg>

<svg xmlns='http://www.w3.org/2000/svg' viewBox='0 3 172 46'>
  <defs>
    <clipPath id='a'>
      <path fill='none' d='M0 0h46v46H0z' />
    </clipPath>
  </defs>
  <g clip-path='url(#a)' transform='translate(1.43 3.858)'>
    <path fill='#fff'
          d='M 14.775 44.315 C 14.851 44.082 14.909 43.844 14.949 43.602 C 15.369 40.963 15.273 38.268 14.665 35.666 C 14.339 34.436 13.938 33.228 13.465 32.047 C 12.715 29.873 11.636 27.828 10.265 25.982 C 8.843 24.141 7.299 22.397 5.644 20.763 C 4.762 19.858 3.897 18.936 3.051 17.997 C 2.861 17.773 2.711 17.519 2.607 17.245 C 2.445 16.852 2.607 16.585 3.046 16.461 C 3.403 16.359 3.786 16.395 4.118 16.561 C 4.766 16.848 5.386 17.196 5.968 17.601 C 7.002 18.401 7.957 19.282 8.952 20.122 C 9.878 20.903 10.801 21.687 11.752 22.442 C 12.04 22.659 12.364 22.824 12.708 22.93 C 13.153 23.143 13.672 22.841 13.708 22.35 C 13.743 22.047 13.732 21.741 13.674 21.442 C 13.438 20.354 13.054 19.303 12.531 18.32 C 11.404 16.046 10.239 13.788 9.114 11.514 C 8.783 10.844 8.496 10.153 8.254 9.446 C 8.064 8.941 8.05 8.386 8.213 7.872 C 8.359 7.359 8.94 7.11 9.413 7.357 C 9.704 7.49 9.97 7.673 10.198 7.898 C 10.913 8.632 11.519 9.465 11.998 10.37 C 13.256 12.585 14.468 14.822 15.74 17.03 C 16.221 17.823 16.744 18.591 17.305 19.33 C 17.484 19.637 17.838 19.798 18.187 19.73 C 18.524 19.636 18.75 19.32 18.731 18.97 C 18.831 18.157 18.858 17.337 18.812 16.52 C 18.56 14.107 18.23 11.702 17.921 9.294 C 17.691 7.792 17.572 6.275 17.565 4.756 C 17.539 4.123 17.66 3.493 17.919 2.915 C 18.105 2.523 18.495 2.268 18.929 2.257 C 19.34 2.227 19.723 2.466 19.875 2.849 C 20.117 3.316 20.295 3.814 20.405 4.328 C 20.83 6.861 21.185 9.404 21.613 11.937 C 21.933 13.831 22.313 15.717 22.7 17.601 C 22.816 18.115 22.994 18.613 23.231 19.084 C 23.44 19.523 24.045 19.571 24.32 19.171 C 24.324 19.166 24.328 19.16 24.331 19.155 C 24.478 18.966 24.592 18.754 24.669 18.527 C 24.86 17.935 25.036 17.337 25.184 16.735 C 25.85 14.024 26.484 11.307 27.177 8.602 C 27.389 7.887 27.663 7.191 27.995 6.523 C 28.165 6.171 28.478 5.91 28.855 5.806 C 29.301 5.592 29.833 5.827 29.976 6.3 C 30.07 6.554 30.128 6.821 30.147 7.091 C 30.186 8.533 30.045 9.975 29.726 11.382 C 29.247 13.982 28.726 16.582 28.266 19.189 C 28.007 20.539 27.942 21.92 28.073 23.289 C 28.131 23.828 28.266 24.355 28.473 24.856 C 28.744 25.517 29.542 25.779 30.152 25.408 C 30.529 25.221 30.88 24.986 31.196 24.708 C 31.971 23.982 32.636 23.148 33.172 22.232 C 33.803 21.172 34.716 20.309 35.809 19.738 C 37.008 19.079 38.42 18.926 39.732 19.314 C 40.788 19.638 40.99 20.205 40.304 21.014 C 39.812 21.582 39.282 22.117 38.719 22.614 C 36.863 24.244 35.256 26.137 33.947 28.232 C 33.347 29.21 32.839 30.24 32.179 31.18 C 31.265 32.48 30.269 33.734 29.267 34.98 C 28.246 36.299 27.627 37.884 27.482 39.545 C 27.32 41.082 27.304 42.631 27.434 44.171 C 27.451 44.418 27.525 44.507 27.817 44.507 M 22.515 29.559 C 24.152 29.009 25.548 27.909 26.466 26.446 C 24.977 25.475 23.208 25.026 21.436 25.17 C 21.748 25.244 22.022 25.298 22.289 25.375 C 23.099 25.558 23.729 26.194 23.905 27.005 C 24.097 27.796 23.787 28.625 23.122 29.095 C 22.922 29.255 22.717 29.405 22.514 29.56 M 16.791 28.442 C 18.259 29.4 20.001 29.85 21.749 29.724 C 21.737 29.712 21.727 29.692 21.712 29.688 C 21.539 29.646 21.367 29.603 21.193 29.566 C 20.3 29.449 19.571 28.794 19.359 27.919 C 19.136 27.065 19.493 26.165 20.242 25.697 L 20.742 25.321 C 19.101 25.868 17.703 26.972 16.791 28.443' />
    />
  </g>
  <path fill='#fff' d='M45.769 48.564H0V3.026h45.769ZM1.624 46.941h42.521V4.647H1.624Z' />
  <text fill='#fff' font-family='Roboto-Regular, Roboto' font-size='35' transform='translate(53 37)'>
    <tspan x='0' y='0'>IN2ART</tspan>
  </text>
</svg>
